X:110
T:Meet Mr Callahan
C:
N:TablEdited by Vance Henry
L:1/8
Q:1/4=157
M:4/4
K:C
z6 AB | "F"c2 AF "Cdim"DF Ac | "Em"B2 GE "Am"CE G2 | "Dm"A2 FD "G"B,C DB, | "C"C4 "G7"zC B,A, | 
G,"C"C EA2G E/C/A, | G,C EA2G E/C/A, | G,C EA2G EG | "C#dim"AG E2 "G"F4 | G,B, DA2F D/B,/A, | 
G,B, DA2F D/B,/A, | G,B, DB, "G9"G,B, D^D | "C"EC A,G,2C B,A, | G,C EA2G E/C/A, | 
G,C EA2G E/C/A, | G,C EC "C7"_B,C EG | "F"F2 [F2A,2] [F2A,2] AB | c2 AF "Cdim"DF Ac | 
"Em"B2 GE "Am"CE G2 | "Dm"A2 FD "G"B,C DB, | "C"C4 "C7"[E2_B,2] (3A_B=B | "F"c2 AF "Cdim"DF Ac | 
"Em"B2 GE "Am"CE G2 | "Dm"A2 FD "G"B,C DB, | "C"CE DB, C4 | "Am"A,C EG A2 AB | 
"E7"(3ABA ^GB [B4G4] | E^G B^c d2 dd | "Am"dc Bc4z | A,C EG A2 AB | "E7"A/B/A ^GB3 B^c | 
d^c BA ^GE ^FG | "Am"[A2A2] "Ab"^G2 "G7"=G4 | 


